X:1
T:Aran's Lonely Home
M:4/4
L:1/4
K:F
F/2-G/2| A A GF/2-G/2| A A GF/2-E/2| DD/2-C/2 DD/2-C/2| D3 E| FE/2-D/2 F G|\
 A2 d d| A A GB/2-G/2| A3D/2-E/2| FE/2-D/2 F G| A- d c d| A A GB/2-G/2|\
 A3 F/2G/2| A-A/2-A/2 GF/2-G/2| A A GF/2-E/2| DE/2-D/2 DE/2-D/2| D3||\
